web/packages/design/src/ResourceIcon/assets/activemq.svg

<svg width="72" height="72" viewBox="0 0 72 72" fill="none" xmlns="http://www.w3.org/2000/svg">
<path d="M18.1123 35.9617L11.3585 24.1032L18.5279 11.8523L32.0578 11.9319L39.0405 0L53.2348 0.0834519L60.2596 12.4178L53.4525 24.0496L60.2693 36.0186L53.3561 47.8315L60.1437 59.7491L52.9743 72L38.78 71.9166L32.0518 60.103L18.2748 60.022L11.25 47.6877L18.1123 35.9617Z" fill="white"/>
<path d="M52.3033 46.7004L39.9031 46.6619L33.7363 35.9037L39.9698 25.1841L52.37 25.2226L58.5368 35.9807L52.3033 46.7004Z" fill="#C12766"/>
<path d="M31.6158 58.3933L19.2156 58.3548L13.0488 47.5966L19.2823 36.877L31.6825 36.9155L37.8493 47.6736L31.6158 58.3933Z" fill="#3E489F"/>
<path d="M52.3033 70.5354L39.9031 70.4969L33.7363 59.7387L39.9698 49.019L52.37 49.0575L58.5368 59.8157L52.3033 70.5354Z" fill="#714099"/>
<path d="M31.6158 35.008L19.2156 34.9695L13.0488 24.2114L19.2823 13.4917L31.6825 13.5302L37.8493 24.2884L31.6158 35.008Z" fill="#78932C"/>
<path d="M52.3033 23.3151L39.9031 23.2766L33.7363 12.5185L39.9698 1.79883L52.37 1.83733L58.5368 12.5955L52.3033 23.3151Z" fill="#CF242A"/>
<path fill-rule="evenodd" clip-rule="evenodd" d="M46.7784 15.2998C48.0771 15.0944 49.0701 13.9699 49.0701 12.6134C49.0701 11.1113 47.8524 9.89355 46.3503 9.89355C44.8481 9.89355 43.6304 11.1113 43.6304 12.6134C43.6304 12.9291 43.6842 13.2322 43.7831 13.5141L27.7583 22.5716C27.2594 21.9696 26.5061 21.5862 25.6632 21.5862C24.1611 21.5862 22.9434 22.804 22.9434 24.3061C22.9434 25.6475 23.9144 26.7621 25.1919 26.9853V45.012C23.9144 45.2352 22.9434 46.3498 22.9434 47.6912C22.9434 49.1933 24.1611 50.4111 25.6632 50.4111C26.5036 50.4111 27.255 50.0299 27.7539 49.4311L43.8113 58.8561C43.6944 59.1595 43.6303 59.4892 43.6303 59.8339C43.6303 61.336 44.848 62.5537 46.3501 62.5537C47.8523 62.5537 49.07 61.336 49.07 59.8339C49.07 58.4775 48.0771 57.353 46.7784 57.1475V38.6851C48.0771 38.4798 49.0701 37.3552 49.0701 35.9988C49.0701 34.6423 48.0771 33.5178 46.7784 33.3124V15.2998ZM45.879 57.1547V38.6779C45.2089 38.5609 44.6232 38.1986 44.2176 37.687L28.2101 46.7347C28.3219 47.0323 28.3831 47.3546 28.3831 47.6912C28.3831 48.0304 28.321 48.355 28.2076 48.6545L44.2694 58.0821C44.6723 57.604 45.237 57.2668 45.879 57.1547ZM45.879 15.2926C45.2089 15.1755 44.6232 14.8133 44.2176 14.3017L28.2101 23.3494C28.3219 23.647 28.3831 23.9694 28.3831 24.3061C28.3831 24.6293 28.3267 24.9394 28.2232 25.227L44.2415 34.2809C44.646 33.7849 45.222 33.4344 45.879 33.3196V15.2926ZM26.0914 26.9924C26.772 26.8848 27.3687 26.5247 27.7825 26.0111L43.7959 35.0622C43.6888 35.3542 43.6304 35.6696 43.6304 35.9988C43.6304 36.3144 43.6842 36.6176 43.7831 36.8995L27.7585 45.9568C27.3458 45.4589 26.759 45.1104 26.0914 45.0049V26.9924Z" fill="white"/>
</svg>

<svg xmlns="http://www.w3.org/2000/svg" width="72" height="72" fill="none" viewBox="0 0 72 72"><path fill="#fff" d="M18.112 35.962 11.36 24.103l7.169-12.25 13.53.079L39.04 0l14.194.083 7.025 12.335-6.807 11.632 6.816 11.969-6.913 11.813 6.788 11.917L52.974 72l-14.194-.083-6.728-11.814-13.777-.081-7.025-12.334z"/><path fill="#c12766" d="m52.303 46.7-12.4-.038-6.167-10.758 6.234-10.72 12.4.039 6.167 10.758z"/><path fill="#3e489f" d="m31.616 58.393-12.4-.038-6.167-10.758 6.233-10.72 12.4.038 6.167 10.759z"/><path fill="#714099" d="m52.303 70.535-12.4-.038-6.167-10.758 6.234-10.72 12.4.038 6.167 10.759z"/><path fill="#78932c" d="m31.616 35.008-12.4-.039-6.167-10.758 6.233-10.72 12.4.04 6.167 10.757z"/><path fill="#cf242a" d="m52.303 23.315-12.4-.038-6.167-10.759 6.234-10.72 12.4.04 6.167 10.758z"/><path fill="#fff" fill-rule="evenodd" d="M46.778 15.3a2.72 2.72 0 1 0-2.995-1.786l-16.025 9.058a2.72 2.72 0 1 0-2.566 4.414v18.026a2.72 2.72 0 1 0 2.562 4.42l16.057 9.424a2.72 2.72 0 1 0 2.967-1.709V38.686a2.72 2.72 0 0 0 0-5.373zm-.899 41.855V38.678a2.72 2.72 0 0 1-1.661-.991L28.21 46.735a2.7 2.7 0 0 1-.002 1.92l16.061 9.427a2.72 2.72 0 0 1 1.61-.927m0-41.862a2.72 2.72 0 0 1-1.661-.991L28.21 23.349a2.7 2.7 0 0 1 .013 1.878l16.019 9.054a2.7 2.7 0 0 1 1.637-.961zm-19.788 11.7a2.72 2.72 0 0 0 1.691-.982l16.014 9.051a2.7 2.7 0 0 0-.013 1.838L27.76 45.957c-.413-.498-1-.847-1.668-.952z" clip-rule="evenodd"/></svg>
